svg/fluentui-system-icons/ic_fluent_people_16_filled.svg

<svg width="16" height="16" viewBox="0 0 16 16" fill="none" xmlns="http://www.w3.org/2000/svg">
<path d="M8 5.5C8 6.88071 6.88071 8 5.5 8C4.11929 8 3 6.88071 3 5.5C3 4.11929 4.11929 3 5.5 3C6.88071 3 8 4.11929 8 5.5ZM11.5 8C12.6046 8 13.5 7.10457 13.5 6C13.5 4.89543 12.6046 4 11.5 4C10.3954 4 9.5 4.89543 9.5 6C9.5 7.10457 10.3954 8 11.5 8ZM10.4998 10.5938V10.5C10.4998 9.9372 10.3138 9.41783 10 9H13.2729C13.9494 9 14.4979 9.54845 14.4979 10.225C14.4979 10.225 14.4979 12.5 11.4979 12.5C10.9 12.5 10.4213 12.4096 10.038 12.265C10.228 11.918 10.3384 11.5892 10.4029 11.3231C10.4481 11.1368 10.4721 10.9757 10.485 10.8522C10.4914 10.7901 10.4951 10.7367 10.4972 10.6934L10.4998 10.5938ZM9.5 10.5C9.5 9.67157 8.82843 9 8 9H3C2.17157 9 1.5 9.67157 1.5 10.5V10.575C1.5 10.575 1.5 13.5 5.5 13.5C9.31188 13.5 9.49115 10.8436 9.49959 10.5938L9.5 10.575V10.5Z" fill="#212121"/>
</svg>

<svg xmlns="http://www.w3.org/2000/svg" width="16" height="16"><path d="M8 5.5a2.5 2.5 0 1 1-5 0 2.5 2.5 0 0 1 5 0ZM11.5 8a2 2 0 1 0 0-4 2 2 0 0 0 0 4Zm-1 2.594V10.5A2.49 2.49 0 0 0 10 9h3.273c.676 0 1.225.548 1.225 1.225 0 0 0 2.275-3 2.275-.598 0-1.077-.09-1.46-.235a3.86 3.86 0 0 0 .447-1.413c.006-.062.01-.115.012-.159l.003-.1Zm-1-.094A1.5 1.5 0 0 0 8 9H3a1.5 1.5 0 0 0-1.5 1.5v.075s0 2.925 4 2.925c3.812 0 3.991-2.656 4-2.906V10.5Z"/></svg>
